frog.svg

<svg viewBox="0 0 50 30" xmlns="http://www.w3.org/2000/svg">
  <defs></defs>
  <g transform="matrix(-0.002505, -0.651696, 0.632983, -0.002434, 66.615158, 146.429001)" style="">
    <g transform="matrix(0.976816, 0.375374, -0.342254, 0.944068, 166.258774, -127.782806)" style="">
      <path fill="#4caf50" d="M44.108,16.789c1.26,0,2.279-1.02,2.279-2.279c0-0.37-0.096-0.713-0.253-1.022c-0.075,0.089-0.185,0.147-0.311,0.147     c-0.229,0-0.415-0.186-0.415-0.414c0-0.168,0.102-0.312,0.244-0.376c-0.406-0.377-0.946-0.613-1.545-0.613     c-1.258,0-2.278,1.021-2.278,2.278C41.83,15.77,42.851,16.789,44.108,16.789z M44.723,13.084c0.192,0,0.348,0.155,0.348,0.349     c0,0.192-0.155,0.35-0.348,0.35c-0.193,0-0.351-0.157-0.351-0.35C44.372,13.239,44.529,13.084,44.723,13.084z M44.11,13.956     c0.3,0,0.546,0.245,0.546,0.547c0,0.301-0.246,0.545-0.546,0.545c-0.303,0-0.548-0.244-0.548-0.545     C43.562,14.201,43.808,13.956,44.11,13.956z"></path>
      <path fill="#4caf50" d="M62.183,23.916c-0.276,0-0.499-0.223-0.499-0.497c0-0.201,0.122-0.374,0.294-0.452c-0.488-0.452-1.138-0.736-1.856-0.736     c-1.513,0-2.738,1.226-2.738,2.738s1.226,2.739,2.738,2.739s2.739-1.227,2.739-2.739c0-0.444-0.116-0.858-0.305-1.229     C62.464,23.846,62.333,23.916,62.183,23.916z M60.122,25.615c-0.363,0-0.658-0.294-0.658-0.656s0.295-0.657,0.658-0.657     c0.361,0,0.657,0.295,0.657,0.657S60.483,25.615,60.122,25.615z M60.859,24.093c-0.233,0-0.421-0.188-0.421-0.42     c0-0.231,0.188-0.419,0.421-0.419c0.231,0,0.418,0.188,0.418,0.419C61.277,23.905,61.091,24.093,60.859,24.093z"></path>
      <path fill="#4caf50" d="M 65.541 29.492 C 65.541 28.029 69.753 25.358 66.421 20.863 C 60.934 15.375 57.366 17.478 55.962 18.883 C 54.558 20.286 54.459 18.633 52.776 17.638 C 51.092 16.642 49.595 17.691 49.595 16.109 C 49.595 14.527 50.765 9.055 44.563 9.055 C 38.362 9.055 38.18 13.219 39.274 15.717 C 39.959 17.28 37.351 17.948 34.616 18.726 C 30.059 20.023 33.619 22.197 33.619 22.197 C 35.313 23.594 37.19 25.847 38.297 26.547 C 36.657 26.19 33.49 23.85 33.265 24.857 C 32.919 26.397 34.821 30.751 36.062 31.991 C 37.304 33.233 35.937 34.883 34.554 38.151 C 33.171 41.419 34.271 50.66 35.339 53.992 C 36.144 56.502 36.622 57.748 37.04 59.372 L 37.51 60.527 C 37.51 60.527 38.568 64.29 43.37 65.487 C 43.321 65.702 43.275 65.924 43.244 66.158 C 43.175 66.661 43.198 67.205 43.238 67.782 C 43.269 68.357 43.327 68.965 43.394 69.593 C 43.527 70.851 43.743 72.19 43.946 73.531 C 44.053 74.201 44.149 74.871 44.23 75.531 C 44.312 76.191 44.376 76.84 44.435 77.469 C 44.542 78.726 44.572 78.894 44.581 79.9 C 44.588 80.402 44.753 81.792 44.758 82.2 C 44.762 82.422 44.859 83.679 44.931 83.674 C 47.026 83.519 49.667 83.289 50.86 83.178 C 50.86 83.178 51.013 82.565 51.062 81.757 C 51.111 80.949 51.173 79.867 51.193 78.985 C 51.195 78.544 51.22 78.103 51.235 77.661 C 51.25 77.222 51.268 76.779 51.299 76.338 C 51.346 75.455 51.419 74.572 51.501 73.689 L 52.057 68.387 C 52.132 67.505 52.194 66.621 52.234 65.739 C 52.253 65.494 52.257 65.25 52.254 65.005 C 54.584 64.377 57.273 63.359 60.369 61.831 C 67.196 58.864 64.595 44.508 63.533 40.626 C 62.439 36.625 69.217 38.404 67.033 32.511 C 66.218 30.303 65.541 30.955 65.541 29.492 Z M 44.223 10.365 C 46.575 10.365 48.482 12.271 48.482 14.623 C 48.482 16.975 46.575 18.883 44.223 18.883 C 41.87 18.883 39.963 16.975 39.963 14.623 C 39.963 12.271 41.87 10.365 44.223 10.365 Z M 50.478 83.222 C 52.33 83.036 46.406 83.582 45.493 83.629 C 45.355 83.636 45.448 82.949 45.433 82.604 C 45.415 82.184 45.491 81.405 45.497 80.902 C 45.507 79.898 45.546 78.724 45.653 77.467 C 45.713 76.838 45.776 76.19 45.858 75.529 C 45.94 74.868 46.035 74.199 46.141 73.529 C 46.345 72.187 46.561 70.848 46.694 69.591 C 46.761 68.963 46.819 68.356 46.85 67.78 C 46.889 67.203 46.913 66.659 46.844 66.156 C 46.83 66.049 46.805 65.95 46.785 65.845 C 47.264 65.837 47.769 65.807 48.297 65.754 C 48.3 65.774 48.301 65.795 48.303 65.816 C 48.401 66.695 48.52 67.575 48.653 68.455 L 49.555 73.726 C 49.695 74.605 49.826 75.485 49.93 76.365 C 49.99 76.804 50.037 77.244 50.08 77.684 C 50.123 78.123 50.178 78.563 50.209 79.003 C 50.228 79.214 50.242 79.426 50.258 79.637 C 50.281 80.29 50.448 81.872 50.478 83.222 Z M 40.45 61.985 C 36.608 58.143 35.087 44.7 36.042 40.235 C 36.776 36.797 38.178 33.245 45.719 37.01 C 54.116 41.205 56.277 54.651 56.277 54.651 C 56.646 59.76 42.073 63.608 40.45 61.985 Z M 59.96 30.917 C 56.714 30.917 54.081 28.284 54.081 25.038 C 54.081 21.79 56.714 19.158 59.96 19.158 C 63.207 19.158 65.84 21.79 65.84 25.038 C 65.84 28.284 63.207 30.917 59.96 30.917 Z" style="stroke-width: 0; vector-effect: non-scaling-stroke; stroke-linecap: round;"></path>
      <circle fill="#4caf50" cx="40.923" cy="42.058" r="0.228"></circle>
      <circle fill="#4caf50" cx="42.78" cy="37.741" r="0.39"></circle>
      <circle fill="#4caf50" cx="43.061" cy="51.253" r="0.488"></circle>
      <circle fill="#4caf50" cx="38.843" cy="50.06" r="0.368"></circle>
      <circle fill="#4caf50" cx="42.78" cy="41.195" r="0.492"></circle>
      <ellipse fill="#4caf50" cx="46.071" cy="48.041" rx="1.041" ry="1.031"></ellipse>
    </g>
  </g>
</svg>

<svg viewBox="0 0 50 30" xmlns="http://www.w3.org/2000/svg">
  <defs></defs>
  <g transform="matrix(-0.002505, -0.651696, 0.632983, -0.002434, 66.615158, 146.429001)" style="">
    <g transform="matrix(0.976816, 0.375374, -0.342254, 0.944068, 166.258774, -127.782806)" style="">      
      <path fill="#4caf50" d="M 44.108 16.789 C 45.368 16.789 46.387 15.769 46.387 14.51 C 46.387 14.14 46.291 13.797 46.134 13.488 C 46.059 13.577 45.51 12.909 45.652 12.845 C 45.246 12.468 44.706 12.232 44.107 12.232 C 42.849 12.232 41.829 13.253 41.829 14.51 C 41.83 15.77 42.851 16.789 44.108 16.789 Z"></path>
      <path fill="#4caf50" d="M 62.556 23.74 C 62.464 23.846 61.806 23.045 61.978 22.967 C 61.49 22.515 60.84 22.231 60.122 22.231 C 58.609 22.231 57.384 23.457 57.384 24.969 C 57.384 26.481 58.61 27.708 60.122 27.708 C 61.634 27.708 62.861 26.481 62.861 24.969 C 62.861 24.525 62.745 24.111 62.556 23.74 Z"></path>
      <path fill="#4caf50" d="M 65.541 29.492 C 65.541 28.029 69.753 25.358 66.421 20.863 C 60.934 15.375 57.366 17.478 55.962 18.883 C 54.558 20.286 54.459 18.633 52.776 17.638 C 51.092 16.642 49.595 17.691 49.595 16.109 C 49.595 14.527 50.765 9.055 44.563 9.055 C 38.362 9.055 38.18 13.219 39.274 15.717 C 39.959 17.28 37.351 17.948 34.616 18.726 C 30.059 20.023 33.619 22.197 33.619 22.197 C 35.313 23.594 37.19 25.847 38.297 26.547 C 36.657 26.19 33.49 23.85 33.265 24.857 C 32.919 26.397 34.821 30.751 36.062 31.991 C 37.304 33.233 35.937 34.883 34.554 38.151 C 33.171 41.419 34.271 50.66 35.339 53.992 C 36.144 56.502 36.622 57.748 37.04 59.372 L 37.51 60.527 C 37.51 60.527 38.568 64.29 43.37 65.487 C 43.321 65.702 43.275 65.924 43.244 66.158 C 43.175 66.661 43.198 67.205 43.238 67.782 C 43.269 68.357 43.327 68.965 43.394 69.593 C 43.527 70.851 43.743 72.19 43.946 73.531 C 44.053 74.201 44.149 74.871 44.23 75.531 C 44.312 76.191 44.376 76.84 44.435 77.469 C 44.542 78.726 44.572 78.894 44.581 79.9 C 44.588 80.402 44.753 81.792 44.758 82.2 C 44.762 82.422 44.859 83.679 44.931 83.674 C 47.026 83.519 49.667 83.289 50.86 83.178 C 50.86 83.178 51.013 82.565 51.062 81.757 C 51.111 80.949 51.173 79.867 51.193 78.985 C 51.195 78.544 51.22 78.103 51.235 77.661 C 51.25 77.222 51.268 76.779 51.299 76.338 C 51.346 75.455 51.419 74.572 51.501 73.689 L 52.057 68.387 C 52.132 67.505 52.194 66.621 52.234 65.739 C 52.253 65.494 52.257 65.25 52.254 65.005 C 54.584 64.377 57.273 63.359 60.369 61.831 C 67.196 58.864 64.595 44.508 63.533 40.626 C 62.439 36.625 69.217 38.404 67.033 32.511 C 66.218 30.303 65.541 30.955 65.541 29.492 Z M 44.223 10.365 C 46.575 10.365 48.482 12.271 48.482 14.623 C 48.482 16.975 46.575 18.883 44.223 18.883 C 41.87 18.883 39.963 16.975 39.963 14.623 C 39.963 12.271 41.87 10.365 44.223 10.365 Z M 50.478 83.222 C 52.33 83.036 46.406 83.582 45.493 83.629 C 45.355 83.636 45.448 82.949 45.433 82.604 C 45.415 82.184 45.491 81.405 45.497 80.902 C 45.507 79.898 45.546 78.724 45.653 77.467 C 45.713 76.838 45.776 76.19 45.858 75.529 C 45.94 74.868 46.035 74.199 46.141 73.529 C 46.345 72.187 46.561 70.848 46.694 69.591 C 46.761 68.963 46.819 68.356 46.85 67.78 C 46.889 67.203 46.913 66.659 46.844 66.156 C 46.83 66.049 46.805 65.95 46.785 65.845 C 47.264 65.837 47.769 65.807 48.297 65.754 C 48.3 65.774 48.301 65.795 48.303 65.816 C 48.401 66.695 48.52 67.575 48.653 68.455 L 49.555 73.726 C 49.695 74.605 49.826 75.485 49.93 76.365 C 49.99 76.804 50.037 77.244 50.08 77.684 C 50.123 78.123 50.178 78.563 50.209 79.003 C 50.228 79.214 50.242 79.426 50.258 79.637 C 50.281 80.29 50.448 81.872 50.478 83.222 Z M 40.45 61.985 C 36.608 58.143 35.087 44.7 36.042 40.235 C 36.776 36.797 38.178 33.245 45.719 37.01 C 54.116 41.205 56.277 54.651 56.277 54.651 C 56.646 59.76 42.073 63.608 40.45 61.985 Z M 59.96 30.917 C 56.714 30.917 54.081 28.284 54.081 25.038 C 54.081 21.79 56.714 19.158 59.96 19.158 C 63.207 19.158 65.84 21.79 65.84 25.038 C 65.84 28.284 63.207 30.917 59.96 30.917 Z" style="stroke-width: 0; vector-effect: non-scaling-stroke; stroke-linecap: round;"></path>
      <circle fill="#4caf50" cx="40.923" cy="42.058" r="0.228"></circle>
      <circle fill="#4caf50" cx="42.78" cy="37.741" r="0.39"></circle>
      <circle fill="#4caf50" cx="43.061" cy="51.253" r="0.488"></circle>
      <circle fill="#4caf50" cx="38.843" cy="50.06" r="0.368"></circle>
      <circle fill="#4caf50" cx="42.78" cy="41.195" r="0.492"></circle>
      <ellipse fill="#4caf50" cx="46.071" cy="48.041" rx="1.041" ry="1.031"></ellipse>
    </g>
  </g>
</svg>
